src/distro-icons/elementary.svg

<svg width="512" height="512" fill="none" xmlns="http://www.w3.org/2000/svg">
<circle cx="256" cy="256" r="256" fill="#fff"/>
<path d="M256 3.368C116.475 3.368 3.368 116.475 3.368 256S116.475 508.632 256 508.632 508.632 395.525 508.632 256 395.525 3.368 256 3.368Zm0 21.053c106.078 0 195.498 71.325 222.921 168.632-23.619 48.717-57.228 92.581-98.158 128.026-19.662 17.028-41.129 32.207-64.842 42.895-23.713 10.688-49.795 16.752-75.763 15.263-19.51-1.119-38.783-6.554-55.869-16.026 45.281-24.536 86.136-57.25 119.579-96.422 21.952-25.711 41.158-54.932 48.553-87.921 3.698-16.494 4.324-33.769.868-50.315-3.455-16.547-11.106-32.316-22.684-44.632-11.311-12.032-26.159-20.555-42.079-24.947-15.919-4.392-32.86-4.732-49.105-1.763-32.49 5.937-61.498 24.82-84.763 48.263-41.009 41.321-66.361 99.627-61.71 157.658 2.325 29.015 12.048 57.526 28.71 81.394 3.719 5.328 7.808 10.402 12.184 15.211-24.273 8.495-49.405 14.542-74.895 17.947C37.063 342.322 24.421 300.642 24.421 256 24.421 128.102 128.102 24.421 256 24.421Zm1.474 46.79c16.279.022 32.668 4.95 45.658 14.763 11.702 8.84 20.373 21.418 25.289 35.237 4.916 13.818 6.177 28.824 4.5 43.394-3.354 29.141-18.055 55.866-35.816 79.211-31.447 41.335-73.248 74.419-119.737 97.579a376.055 376.055 0 0 1-14.447 6.789c-10.116-8.852-18.786-19.351-25.395-31.052-13.809-24.451-18.363-53.495-15.684-81.448 2.679-27.952 12.272-54.893 25.158-79.842 14.941-28.928 35.306-56.328 63.816-72.053 14.254-7.862 30.379-12.6 46.658-12.579ZM485.5 225a233.623 233.623 0 0 1 2.079 31c0 127.898-103.681 231.579-231.579 231.579-71.829 0-136.023-32.699-178.5-84.026 26.218-5.955 51.842-14.508 76.421-25.395 10.748 8.186 22.619 14.899 35.237 19.737 36.338 13.931 77.593 11.915 114.368-.816 36.776-12.731 69.387-35.582 97.816-62.158 33.867-31.659 62.42-68.974 84.158-109.921Z" fill="#000"/>
</svg>

<svg width="512" height="512" viewBox="0 0 512 512" fill="none" xmlns="http://www.w3.org/2000/svg">
<circle cx="256" cy="256" r="256" fill="white"/>
<path d="M256 3.36842C116.475 3.36842 3.36841 116.475 3.36841 256C3.36841 395.525 116.475 508.632 256 508.632C395.525 508.632 508.632 395.525 508.632 256C508.632 116.475 395.525 3.36842 256 3.36842ZM256 24.4211C362.078 24.4211 451.498 95.7461 478.921 193.053C455.302 241.77 421.693 285.634 380.763 321.079C361.101 338.107 339.634 353.286 315.921 363.974C292.208 374.662 266.126 380.726 240.158 379.237C220.648 378.118 201.375 372.683 184.289 363.211C229.57 338.675 270.425 305.961 303.868 266.789C325.82 241.078 345.026 211.857 352.421 178.868C356.119 162.374 356.745 145.099 353.289 128.553C349.834 112.006 342.183 96.2374 330.605 83.9211C319.294 71.8888 304.446 63.3656 288.526 58.9737C272.607 54.5817 255.666 54.2418 239.421 57.2105C206.931 63.1481 177.923 82.0308 154.658 105.474C113.649 146.795 88.2969 205.101 92.9474 263.132C95.2726 292.147 104.996 320.658 121.658 344.526C125.377 349.854 129.466 354.928 133.842 359.737C109.569 368.232 84.4369 374.279 58.9474 377.684C37.0629 342.322 24.421 300.642 24.421 256C24.421 128.102 128.102 24.4211 256 24.4211ZM257.474 71.2105C273.753 71.2326 290.142 76.1609 303.132 85.9737C314.834 94.8146 323.505 107.392 328.421 121.211C333.337 135.029 334.598 150.035 332.921 164.605C329.567 193.746 314.866 220.471 297.105 243.816C265.658 285.151 223.857 318.235 177.368 341.395C172.61 343.765 167.776 346.018 162.921 348.184C152.805 339.332 144.135 328.833 137.526 317.132C123.717 292.681 119.163 263.637 121.842 235.684C124.521 207.732 134.114 180.791 147 155.842C161.941 126.914 182.306 99.5138 210.816 83.7895C225.07 75.9273 241.195 71.1885 257.474 71.2105ZM485.5 225C486.857 235.141 487.579 245.488 487.579 256C487.579 383.898 383.898 487.579 256 487.579C184.171 487.579 119.977 454.88 77.5 403.553C103.718 397.598 129.342 389.045 153.921 378.158C164.669 386.344 176.54 393.057 189.158 397.895C225.496 411.826 266.751 409.81 303.526 397.079C340.302 384.348 372.913 361.497 401.342 334.921C435.209 303.262 463.762 265.947 485.5 225Z" fill="black"/>
<circle cx="434.5" cy="434.5" r="77.5" fill="white"/>
<path d="M425.077 383.035L389.695 383.035C388.859 383.035 388.182 383.713 388.182 384.549C388.182 385.385 388.859 386.063 389.695 386.063L422.466 386.063C422.7 385.715 422.942 385.369 423.192 385.024L424.3 383.494L425.077 383.035Z" fill="#E91F63"/>
<path d="M414.021 402.627C413.758 403.326 413.481 404.062 413.201 404.832L375.77 404.832C374.934 404.832 374.256 404.154 374.256 403.318C374.256 402.482 374.934 401.805 375.77 401.805L414.365 401.805L414.256 402.001L414.021 402.627Z" fill="#E91F63" fill-opacity="0.7"/>
<path d="M409.981 420.271L369.715 420.271C368.879 420.271 368.201 420.949 368.201 421.785C368.201 422.621 368.879 423.299 369.715 423.299L409.566 423.299C409.574 423.255 409.583 423.211 409.591 423.168L409.6 423.123C409.788 422.168 409.911 421.53 409.988 421.029C409.983 420.775 409.98 420.523 409.981 420.271Z" fill="#E91F63" fill-opacity="0.3"/>
<path d="M411.238 439.041L368.201 439.041C367.365 439.041 366.688 439.719 366.688 440.555C366.688 441.391 367.365 442.068 368.201 442.068L413.542 442.068C413.244 441.681 412.941 441.299 412.632 440.922C412.101 440.306 411.639 439.677 411.238 439.041Z" fill="#E91F63"/>
<path d="M422.95 457.508L372.742 457.508C371.906 457.508 371.229 458.186 371.229 459.021C371.229 459.857 371.906 460.535 372.742 460.535L424.569 460.535C424.27 459.958 423.969 459.383 423.665 458.809C423.424 458.372 423.186 457.938 422.95 457.508Z" fill="#E91F63" fill-opacity="0.6"/>
<path d="M431.847 476.277L384.852 476.277C384.016 476.277 383.338 476.955 383.338 477.791C383.338 478.627 384.016 479.305 384.852 479.305L433.073 479.305C432.672 478.292 432.263 477.283 431.847 476.277Z" fill="#E91F63"/>
<path d="M448.208 374.214C447.614 376.864 443.434 373.631 442.641 376.63C437.96 373.333 442.354 380.198 441.734 380.632L441.696 380.625L441.324 380.512C441.094 380.375 440.764 380.15 440.296 379.717C436.146 381.868 434.892 387.786 430.546 390.353C427.094 395.117 425.379 400.679 422.521 405.826C420.618 410.883 418.819 415.96 419.089 421.445C418.641 425.778 416.273 431.325 419.566 435.056C424.389 440.907 427.989 447.831 431.655 454.491C437.386 465.283 442.074 476.628 445.996 488.138C446.898 485.638 446.326 493.584 447.949 494.447C448.115 490.45 448.554 484.132 449.121 479.267C449.667 466.363 445.729 453.84 445.85 440.978C445.881 440.441 445.903 439.887 445.935 439.34L446.241 437.784L446.052 437.746C446.498 431.468 447.533 424.774 452.918 420.909C458.369 417.22 465.37 417.399 471.458 415.288C472.815 414.809 474.207 414.478 475.589 414.321C475.601 414.32 475.616 414.33 475.627 414.329C479.652 413.905 483.694 414.739 487.508 416.156C487.564 416.177 487.634 416.21 487.69 416.231C488.037 416.362 488.413 416.499 488.755 416.638C491.586 417.462 497.164 419.735 498.603 417.946C495.295 413.77 489.507 412.883 484.894 410.585C484.154 410.294 483.237 409.955 482.306 409.681L477.761 407.68L476.642 407.144L476.635 407.182L460.262 400.521C460.04 400.222 459.795 399.912 459.56 399.673L475.693 404.985L475.708 404.909C476.266 405.154 476.824 405.374 477.399 405.558L477.392 405.596L488.664 410.065C490.534 411.217 492.576 412.2 494.568 412.731C497.805 413.873 501.069 419.684 502.103 420.14C502.599 414.793 497.834 411.417 493.794 409.029C489.21 405.562 481.615 404.167 482.107 397.177C481.987 396.66 481.87 396.144 481.702 395.632L480.249 392.617L480.332 392.594C478.26 388.877 474.922 385.819 471.059 384.136C467.331 381.961 463.103 379.701 458.942 378.313C456.674 382.262 456.563 374.358 452.666 375.932C449.567 375.694 449.823 376.576 447.951 374.214L448.208 374.214ZM467.532 390.906C468.634 391.093 469.845 391.541 471.023 392.225C474.151 394.046 475.857 396.929 474.846 398.663C473.835 400.396 470.466 400.314 467.34 398.485C464.213 396.657 462.496 393.83 463.51 392.084C464.142 390.997 465.698 390.595 467.532 390.906Z" fill="#E91F63"/>
<path d="M466.591 399.038C469.725 401.043 473.309 401.039 474.595 399.029C475.881 397.019 474.382 393.764 471.248 391.759C468.114 389.754 464.531 389.758 463.245 391.768C461.959 393.778 463.457 397.033 466.591 399.038Z" fill="black"/>
<path fill-rule="evenodd" clip-rule="evenodd" d="M471.284 399.026C472.421 399.025 473.049 398.636 473.32 398.214C473.59 397.791 473.679 397.058 473.204 396.025C472.737 395.01 471.793 393.904 470.433 393.034C469.072 392.164 467.673 391.77 466.555 391.771C465.418 391.773 464.79 392.161 464.52 392.584C464.25 393.006 464.16 393.739 464.635 394.772C465.103 395.787 466.047 396.893 467.407 397.763C468.767 398.633 470.167 399.027 471.284 399.026ZM474.595 399.029C473.309 401.039 469.725 401.043 466.591 399.038C463.457 397.033 461.959 393.778 463.245 391.768C464.531 389.758 468.114 389.754 471.248 391.759C474.382 393.764 475.881 397.019 474.595 399.029Z" fill="white"/>
</svg>
